X:522
T:Hot Bluegrass Mandolin Licks
C:Joe Carr
N:TablEdited by Wendy Anthony  with permission  60 Hot Bluegrass Mandolin Licks  Joe Carr - Texas Music & Video  
L:1/8
Q:1/4=198
M:4/4
K:C
EG AB c2 cd | eg gg ga ge | [g8d8] | z8 | "D""D"D^F A^c dA =cB | AG ^FE D^C =C^A, | 
"G""G"G,2 G,G, B,D E^F | G8 | z8 | "G""G"^ab2b g3d | "D""D"fd c^A BG ED | "G""G"G2 GD F/E/D B,D | 
G,8 | z8 | "Lick #10 - A (Bu""Lick #10 - A (Bu"ea ^ga e^c BA | c^c =c^c AB cA | 
z8 | z8 | "Lick #11 - A (Bu""Lick #11 - A (Bu"^f^g ae fg ab | ^c'b a^f e^c Ac | 
z8 | z8 | "Lick #21 - B - G""Lick #21 - B - G"z2 z2 ^f2 b2 | ^f2 ^F2 ^d2 [=d2=F2] | 
[^c2E2] ^F=F E^F _Bc | B8 | z8 | "Lick #25 - D to ""Lick #25 - D to "z6 D^D/E/ | 
"D""D"^Fd2d d2 de | g^a gf dc (3BcB | "G""G"G2 GD F2 (3FED | G,8 | z8 | "Lick #40 - Float""Lick #40 - Float"bg bg ed Be | 
dB AB G4 | z8 | "Lick #53 - C (O'""Lick #53 - C (O'"z2 z2 zG Ac | [g2^d2] [g2d2] =dc AG | 
c8 | 
%:Created with TablEdit 3.05 b4 https://tabledit.com/
